X:1
T:Sweet honey-sucking bees
%%score { 1 | 2 } 3 4 5
L:1/8
Q:1/4=126
M:4/4
K:F
V:1 treble nm="Soprano I" snm="S"
V:2 treble 
V:3 treble nm="Alto" snm="A"
V:4 treble-8 nm="Tenor" snm="T"
V:5 bass nm="Bass" snm="B"
V:1
 z8 | z2!mf! d2 d3 c | B2 B2 A4 | z2 d2 d3"^John Wilbye\n (1574-1638)" c |[M:4/4] B2 B2 A d d _e | %5
w: |Sweet hon- ey-|suck- ing bees,|sweet hon- ey-|suck- ing bees, why do you|
 =f4 z c c d | _e4 z B B c | d2 f3 f _e2 | d6 d2 | c2 c2 A2 A2 | G2!p! d2 d3 c | B2 B2 A4 | %12
w: still, why do you|still, why do you|still sur- feit on|ro- ses,|pinks and vi- o-|lets; As if the|choic- est nec-|
 G2 d2 (d3 c) | B4 z F F G | A4 z4 | z F G A B4 | z G A B c4 | z A B c d2 (cB) | %18
w: tar lay in *|them, Where- with you|store,|where- with you store,|where- with you store|your cur- ious ca- bin\- *|
 A2"^cresc." B2 A2 A2 | (GABc d4) | z4 d4 | d2 d2 dcBA | B2!mf! G2 B2 A2 | G2 D2 D2 D2 | %24
w: ets? Ah, make your|flight, * * * *|ah,|make your flight, * * *|* ah, make your|flight, ah, make your|
 (DE^FG A2) B2 | A2 G2 G2 ^F2 | G4 z4 | z8 |!f! d4 f2 f _e | d4 B4 | B2 B2 A2 G2 | ^F6!p! A2 | %32
w: flight * * * * to|Me- li- sua- via's|lips.||There, there may you|re- vel|in am- bro- sian|cheer, Where|
 (BABc d2) (cB) | (cBcd c2) f2 | _e2 d2 c2 c2 | d8 |!f! B4 B2 B2 | B4 B4 | z8 | z8 | z8 | z8 | z8 | %43
w: smil\- * * * * ing *|ro\- * * * * ses|and sweet lil- lies|sit,|there may you|re- vel,||||||
 z8 | z8 | z4!p! =F3 G | A2 B4 A2 | G3 A B2 c2- | c2 A2 B2 B2 | z4"^cresc." B3 c | d2 _e4 c2 | %51
w: ||Keep- ing|their spring- tide,|keep- ing their spring-|* tide gra- ces,|keep- ing|their spring- tide|
 d3 d c2 B2 | A8 | z2 d3 d c2 | B6 A2 | G6 (F_E) | (F6 _E D | _E6) E2 | D4 z4 | z8 | z8 | z8 | z8 | %63
w: gra- ces all the|year,|keep- ing their|spring- tide|gra- ces *|all * *|* the|year,|||||
 z2!f! f3 f =e2 | d6 c2 | B4 A4 | G8- | G4 (^F2 E2) | ^F8 |] %69
w: keep- ing their|spring- tide|gra- ces|all|* the *|year.|
V:2
 z2!mf! d2 d3 c | B2 B2 A4 | z2 d2 d3 c | B2 B2 A4 |[M:4/4] z4 z A B c | d4 z A A B | c4 z G G A | %7
w: Sweet hon- ey-|suck- ing bees,|sweet hon- ey-|suck- ing bees,|why do you|still, why do you|still, why do you|
 B2 d3 d c2 | A6 B2 | A2 G2 G2 ^F2 | G4 z4 | z2!p! d2 d3 c | B2 B2 A4 | (GABc) (d4- | %14
w: still sur- feit on|ro- ses,|pinks and vi- o-|lets;|As if the|choic- est nec-|tar * * * lay|
 d2 cB c2) c2 | B4 z4 | z B c d _e2 e2 | d6 d2 | d4 d4 | d2"^cresc." G2 D2 D2 | (DE^FG A2) B2 | %21
w: * * * * in|them,|where- with you store your|cur- ious|ca- bin-|ets? Ah, make your|flight * * * * to|
 A2 G2 A2 A2 | G2!mf! G2 G2 ^F2 | GABc d4- | d4 z2 d2 | d2 B2 A2 A2 | G8- | G4 z4 | %28
w: Me- li- sua- via's|lips, ah, make your|flight * * * *|* to|Me- li- sua- via's|lips.||
!f! f2 f _e d2 B2 | f2 f _e d2 B2 | d2 d2 c2 B2 | A6!p! d2 | (dcBA B2) (AG) | (AGAB A2) d2 | %34
w: There may you re- vel,|there may you re- vel|in am- bro- sian|cheer, Where|smil\- * * * * ing *|ro\- * * * * ses|
 c2 B2 B2 A2 | B8 |!f! d4 d2 d2 | d4 d4 | z8 | z8 | z8 | z8 | z8 | z4 z2!p! A2- | A A A2 A2 B2 | %45
w: and sweet lil- lies|sit,|there may you|re- vel,||||||Keep\-|* ing their spring- tide|
 A4 A4 | z8 | B3 c d2 _e2- | e2 c2 d2 d2 | z4"^cresc." G3 A | B2 c4 A2 | B3 B c2 d2 | c4 z4 | %53
w: gra- ces,||keep- ing their spring\-|* tide gra- ces,|keep- ing|their spring- tide|gra- ces all the|year,|
 z4 z2 f2- | f f _e2 d4- | d2 (cB) c4- | c2 B2 B4- | B2 (AG A4) | B4 z4 | z8 | z8 | z8 | %62
w: keep\-|* ing their spring\-|* tide * gra\-|* ces all|* the * *|year,||||
 z2!f! B3 B c2 | d6 c2 | B4 A4 | G4 d4 | d4 d4 | d8- | d8 |] %69
w: keep- ing their|spring- tide,|spring- tide|gra- ces|all the|year.||
V:3
!mf! G4 ^F2 D2 | G2 G,2 D4 | z2 G2 ^F2 D2 | G2 G,2 D4 |[M:4/4] z G G G ^F4 | z =F F G A4 | %6
w: Sweet hon- ey-|suck- ing bees,|sweet hon- ey-|suck- ing bees,|why do you still,|why do you still,|
w: ||||||
 z G _E F G4 | z2 D3 D _E2 | F3 G A2 G2 | _E2 E2 D4 | z2!p! G2 ^F2 D2 | G2 G,2 D4 | G,2 G4 ^F2 | %13
w: why do you still|sur- feit on|ro- ses, pinks and|vi- o- lets;|As if the|choic- est nec-|tar lay in|
w: |||||||
 G4 z D D _E | F3 G F2 _E2 | D6 (_EF) | G8 | z F G A (B2 AG) | (^F2 G4) F2 | G2"^cresc." D2 B2 B2 | %20
w: them, Where- with you|store your cur- ious|ca- bin\- *|ets,|your cur- ious ca\- * *|* * bin-|ets? Ah, make your|
w: |||||||
 (AG^FE D4) | z2 G,2 G,2 ^F,2 | (G,A,B,C D2)!mf! D2 | D4 B4 | (AG^FE D4) | z4!f! D2 D C | %26
w: flight, * * * *||* * * * * ah!|make your|flight; * * * *|There may you|
w: |ah, make your|flight, * * * * *||||
 B,2 G,2 D2 D C | B,2 G,2 G4 | F4 F2 F2 | F4 F4 | z8 | z8 | z8 | z8 | z8 | z4!f! F2 F _E | %36
w: re- vel, there may you|re- vel, there,|there may you|re- vel,||||||there may you|
w: ||||||||||
 D2 B,2 F2 F _E | D4 B,4 | B,2 B,2 A,2 G,2 | ^F,4!p! A,4 | (B,A,B,C D2) (CB,) | (CB,CD C2) F2 | %42
w: re- vel, there may you|re- vel|in am- bro- sian|cheer,~~ ~where|smil\- * * * * ing *|ro\- * * * * ses|
w: ||||||
 _E2 D2 C2 C2 | D4 z2 ^F2- | F !courtesy!^F F2 F2 G2 | ^F4 D4 | z2 D3 _E F2 | G4 F2 _E2- | %48
w: and sweet lil- lies|sit, keep\-|* ing their spring- tide|gra- ces,|keep- ing their|spring- tide gra\-|
w: ||||||
 E2 F2 B,4- | B,2 A,2 G,4 |"^cresc." F,2 C4 C2 | B,3 B, F2 B,2 | C4 F3 _E | D2 B3 B A2 | G6 F2 | %55
w: * ces all|* the year,|their spring- tide|gra- ces all the|year, all the|year, keep- ing their|spring- tide|
w: |||||||
 _E6 (DC) | (D6 CB, | C6) C2 | B,4 z2!p! F2- | F F _E2 D4- | D2 (CB,) C4- | C2 B,2 A,2 A,2 | %62
w: gra- ces *|all * *|* the|year, keep\-|* ing their spring\-|||
w: |||||* tide * gra\-|* ces all the|
 G,2!f! G3 G A2 | B4 G4 | ^F4 F4 | G4 A4 | B4 B4 | A8- | A8 |] %69
w: * keep- ing their|spring- tide|spring- tide|gra- ces|all the|year.||
w: year, * * *|||||||
V:4
 z8 | z2!mf! g2 ^f2 d2 | g2 G2 d4 | z2 g2 ^f2 d2 |[M:4/4][K:treble-8] g2 G2 d4 | z d d _e f4 | %6
w: |Sweet hon- ey-|suck- ing bees,|sweet hon- ey-|suck- ing bees,|why do you still,|
 z c c d _e4 |[K:treble-8] z2 B3 B c2 | (d3 e ^f2) g2 | c2 c2 d2 d2 | G4 z4 | %11
w: why do you still|sur- feit on|ro\- * * ses,|pinks and vi- o-|lets;|
[K:treble-8] z2!p! g2 ^f2 d2 | g2 G2 d2 d2 | (G3 A B2) (AG) | F4 z F G A |[K:treble-8] B4 z B c d | %16
w: As if the|choic- est nec- tar|lay * * in *|them, Where- with you|store your cur- ious|
 _e4 c4 | d8- |[K:treble-8] d2"^cresc." G2 d2 d2 | (BAGA Bcde | ^f2 d2) f2 g2 | d6 d2 | %22
w: ca- bin-|ets?|* Ah, make your|flight * * * * * * *|* to Me- li-|sua- via's|
[K:treble-8] d4 z2 d2 | (BAGA Bcde | ^f2) d2 f2 g2 | d2 d2 d4 |[K:treble-8]!f! d2 d c B2 G2 | %27
w: lips, your|flight * * * * * * *|* to Me- li-|sua- via's lips;|There may you re- vel,|
 d2 d c B2 G2 | z2 d2 d2 d2 | d4 d4 |[K:treble-8] (Bc) (d_e) f2 g2 | d6!p! d2 | g4 g4 | %33
w: there may you re- vel,|there may you|re- vel|in * am\- * bro- sian|cheer, Where|smil- ing|
[K:treble-8] f6 d2 | _e2 B2 f2 f2 | B8 |!f! f2 f _e d2 B2 |[K:treble-8] f2 f _e d2 B2 | %38
w: ros- ses|and sweet lil- lies|sit,|there may you re- vel,|there may you re- vel|
 d2 d2 c2 B2 | A6!p! d2 | (dcBA B2) (AG) |[K:treble-8] (AGAB A2) d2 | c2 B2 B2 A2 | B4 z2 d2- | %44
w: in am- bro- sian|cheer, where|smil\- * * * * ing *|ro\- * * * * ses|and sweet lil- lies|sit, keep\-|
 d d d2 d2 G2 |[K:treble-8] d4 d4 | z2 B3 c d2 | _e4 d2 c2- | c2 f2 z2"^cresc." d2- | %49
w: * ing their spring- tide|gra- ces,|keep- ing their|spring- tide gra\-|* ces, keep\-|
[K:treble-8] d _e f2 B4 | B2 _e4 f2 | f2 f2 z2 f2- | f f _e2 d2 c2 |[K:treble-8] B4 F4 | z8 | z8 | %56
w: * ing their spring-|tide, spring- tide|gra- ces, keep\-|* ing their spring- tide|gra- ces,|||
[K:treble-8] z8 | z8 | z2!p! d3 d c2 | B6 A2 |[K:treble-8] G6 A2 | (^F2 G4) F2 | G4 z4 | %63
w: ||keep- ing their|spring- tide|gra- ces|all * the|year,|
 z2!f! d3 d e2 |[K:treble-8] ^f4 d4 | d4 d4 | d4 d4 | d8- | d8 |] %69
w: keep- ing their|spring- tide|gra- ces|all the|year.||
V:5
 z8 | z8 | z8 | z8 |[M:4/4] z8 | z8 | z8 | z8 | z8 | z8 | z8 | z8 | z8 | z8 | z8 | z8 | z8 | z8 | %18
w: ||||||||||||||||||
 z4 z2"^cresc." D,2 | G,2 G,2 (G,A,B,C | D6) G,2 | ^F,2 G,2 D,2 D,2 | G,6!mf! D,2 | %23
w: Ah,|make your flight * * *|* to|Me- li- sua- via's|lips, Ah,|
 G,2 G,2 (G,A,B,C | D6) G,2 | ^F,2 G,2 D,2 D,2 | G,8- | G,8 |!f! B,4 B,2 B,2 | B,4 B,4 | z8 | z8 | %32
w: make your flight * * *|* to|Me- li- sua- via's|lips;||There may you|re- vel,|||
 z8 | z8 | z8 | z8 |!f! B,4 B,2 B,2 | B,4 B,4 | (B,,C,) (D,_E,) F,2 G,2 | D,6!p! D,2 | G,4 G,4 | %41
w: ||||there may you|re- vel|in * am\- * bro- sian|cheer, where|smil- ing|
 F,6 D,2 | _E,2 B,,2 F,2 F,2 | B,,4 z4 | z8 | z8 | z8 | z8 | z4 z2"^cresc." B,,2- | %49
w: ro- ses|and sweet lil- lies|sit,|||||keep\-|
 B,, C, D,2 _E,4 | D,2 C,4 F,2 | B,,3 B,, A,,2 B,,2 | F,8 | z8 | z8 | z8 | z8 | z8 | %58
w: * ing their spring-|tide, spring- tide|gra- ces all the|year,||||||
 z2!p! B,3 B, A,2 | G,6 F,2 | _E,6 (D,C,) | D,4 D,4 | G,4 z4 | z2!f! B,3 B, C2 | D4 D,4 | %65
w: keep- ing their|spring- tide|gra- ces *|all the|year,|keep- ing their|spring- tide|
 G,4 ^F,4 | G,4 G,4 | D,8- | D,8 |] %69
w: gra- ces|all the|year.||

